X: 20758
T: Johnny Henry's
R: jig
M: 6/8
K: Dmajor
|:AFA BGB|Adf a2 f|geg fdf|e/f/gf dcB|
AFA BGB|Adf a2 f|geg fdf|gec d3:|
|:Adf a2 f|baf a2 f|geg fdf|e/f/gf dcB|
AFA BGB|Adf a2 f|geg fdf|gec d3:|

